X:1
T:As I Walked Out - Fry
C:Taken down from E. Fry by H.Fl.S.
%%VWML:SBG-1-1-133-0
F:http://www.vwml.org/record/SBG/1/1/133
Z:Original Sibleius Transcription by Martin and Shan Graebe
L:1/8
M:2/4
I:linebreak $
K:D
B | A F F E | D E E F | A F/E/ D E | F2 B c | d B c e | d c/ B/ c d |$ B A F E/F/ | 
B2 !fermata!c d/ F/ | F E E2 | F/ G/ A/ F/ D2 | E B/ B/ B A/G/ | F2 E z |] 
T:As I Walked Out - Bickle
T:Taken down from Wm. Bickle, Lydford by F.W.B.
L:1/8
M:2/4
I:linebreak $
K:F
d | cAAG | G G/G/ GA | cAFA | c d3 d/e/ | fdf>g | fdfd | dcAF |$ c d2 A/B/ | A/>G/G/F/ G2 | 
A/B/c/A/ G2 | Addc/B/ | A2 G2 :|"^last verse" Addc/B/ | A2 G2 |] 
T:As I Walked Out - Johnsons Scots Museum
T:“As I went out one May morning.”​Johnson’s Scotts Museum, 1787, IV. p. 410.
L:1/8
M:4/4
I:linebreak $
K:Bb
F2 | B2 B2 B2 FE | DE FG F2 AB | c2 cd cB AG | FG AB c2 dc |$ Bc d =e f2 e d | cB AG F2 GA | 
B2 AG A2 GF | D2 G2 G2 |] 
T:As I Walked Out - Parsons
T:Taken down from Jas. Parsons by F.W.B. Mch/91
L:1/4
M:4/4
I:linebreak $
K:G
e | d B B G | A A A B | d B G B | d2 e e | g e g2 | a2 g e | g3 g |$ e d B G | d e e d | e f g B | 
B/A/A/G/ A2 | A e e d/c/ | B2 A2 |] 
T:As I Walked Out - Ancient Irish Music
T:Irish tune in Joyce’s “Ancient Irish Music”
T:“I’m going to be married on Sunday” No. 417
L:1/8
M:6/8
I:linebreak $
K:D
A | d c d e d c | d B A F2 A | d c d B A F | F3/2 E/ E E2 A/ A/ | d c d e d c |$ d B A F B B | 
A F E E F ^G | A3 d2 B | A F E F D E | D3 D2 |] 



